X: 5
T: Came Ye O'er Frae France
M: 3/4
L: 1/8
K: C Dorian
|: EC CG, C2 | E>C CE D/E/F/D/ | EC CG, C2 | DB, B,F D/E/F/D/ |
Cc c=B c2 | G>c c<d ec | Gc d/c/B/A/ B2 | FB, B,F G/F/E/D/ :|
